X: 222
T: Miss McCloud's Fancy
%O: 1795
%R: reel
Z: 2018 John Chambers <jc:trillian.mit.edu>
B: Wm. Campbell "10th Book of New and Favorite Country Dances, Strathspey Reels" 1795 p.22
F: https://archive.org/details/campbellstenthbo00camp
N: The trill in bar 2 is awkward; it probably goes on one of the c notes.
M: C|
L: 1/8
K: E
% - - - - - - - - - - - - - - - - - - - - - - - - -
% Voice 1 arranged for small-scale proofreading
V: 1 staves=2
F |\
(EBBG) FGBG | (EccB) c>TBce |\
(EBBG) (B/c/d) ef | geaf gee :: f |\
.e.g.B.g e/e/e g2 | f>gf>e (cffe) |
.e.g.B.g e/e/e g2 | (g/a/b) fa (geef) |\
.e.g.B.g e/e/e g2 | Tf>gfe (cffe) |\
egfa gbfa | ecBA GEE |]
% - - - - - - - - - - - - - - - - - - - - - - - - -
% Voice 1 preserves the original staff layout
V: 2 clef=bass middle=d
z |\
e4 B4 | e2e2 e4 |\
e2e2 B2B2 | e2bB ccc :: z |\
g2e2 g2e2 | d2d2 a2^a2
b2e2 g2e2 | b2B2 e2z2 |\
g2e2 g2e2 | B2b2 ^a2=a2 |\
geaf bgaf | e2B2 eee :|
% - - - - - - - - - - - - - - - - - - - - - - - - -
%%begintext align
%% The 1st Lady turn the 2d Gent 1st Gent turn the 2nd Lady
%% the 1st Lady allemande with the 2d Gent at the same time the
%% 1st Gent allemande with 2d Lady set 3 & 3 top & bottom
%% same sideways hands 6 round & lead out-sides
%%endtext
% - - - - - - - - - - - - - - - - - - - - - - - - -

%%sep 1 1 500
%%sep 1 1 500

